X: 2
T:Morning Hornpipe. FK.02
M:C
L:1/8
Q:160
C:Swallow's MS p.106
S:Kidson's H'pipe MS,early 20thC.
R:Hornpipe
O:England
A:Leeds
N:"Swallows MS p 106" in margin
Z:vmp.John Bagnall
K:D
A | dAdA FAdf | edcd efge | fafd egec | cdBc A2 A2 |!
 dAdA FAdf | edcd efge | fafd egec | d2 d2 d2 ::!
fg| afaf dfaf | bgbg e2 e2 | afaf defg | edcB A2 A2 |!
 dAdA FAdf | edcd efge | fafd egec | d2 d2 d2 :|]
